X:1
T:6 Lieder, Op. 6
T:Sehnsucht nach Griechenland
T:To Fräulein Angela Oppenhoff 
T:6 Lieder, Op. 6
T:Johanna Kinkel
T:1. Sehnsucht nach Griechenland
T:Emanuel Geibel
T:Creative Commons copyright waiver (CC0 1.0 Universal)
T:Creative Commons copyright waiver (CC0 1.0 Universal)
C:Johanna Kinkel
Z:Emanuel Geibel
Z:Creative Commons copyright waiver (CC0 1.0 Universal)
%%score { 1 | 2 | 3 } { ( 4 6 ) | 5 }
L:1/8
Q:1/4=64
M:6/8
K:C
V:1 treble nm="Voice\nSingstimme"
V:2 treble 
V:3 treble 
V:4 treble nm="Piano"
V:6 treble 
V:5 bass 
V:1
!p!"^Lento.  ad libitum." A | %1
w: 1. Ich|
 A2"^Full lyrics available at\nhttps://www.lieder.net/lieder/get_text.html?TextId=6024\n" A A2 B | %2
w: bli- cke in mein|
 c2 z c2 c | c2!<(! c d2 e!<)! |!f! f3 z!p! A A |!<(! A3 A2 B | d3 c2 c!<)! |!>(! c3 B2 A!>)! | %8
w: Herz und ich|bli- cke in die|Welt, bis vom|1. schwim- men- den|Au- ge die|Trä- ne mir|
 ^G3 z2 z | z6 | z6 | z6 | ^c3 c B A | (d2 ^d) e2 e | (!>!=d3 d) ^c B | (^B3 ^c2) A | _B3 A2 G | %17
w: fällt!||||1. Wohl leuch- tet die|Fer- * ne mit|gol- * de- nem|Licht, _ doch|1. hält  mich der|
 F3 z F F | c3-!>(! c d c!>)! | (c F2) z2 z |!p!!<(! A2 A B B B | c3 c2 _B!<)! | %22
w: Nord, ich er-|rei- * che sie|nicht. _|1. O, die Schran- ken so|eng, und die|
!mf!!<(! A3!<)! c3 |!f! !fermata!f3 z!p!!>(! A B | c3 B2 B!>)! |!p! A3[Q:1/4=72] z2 z | z6 | z6 | %28
w: Welt so|weit, und so|1. flüch- tig die|Zeit.|||
 z6 | z2 z z2 :| %30
w: ||
V:2
 z | z2 A A2 B | c3 c2 c | c3 d2 e | f3 A2 A | A3 A2 B | d3 c2 c | (c3 B2) A | ^G3 z2 z | z6 | z6 | %11
w: |Ich weiss ein|Land, wo aus|son- ni- gem|Grün um ver-|2. sun- ke- ne|Tem- pel die|Ros- * en|glühn;|||
 z6 | ^c2 c c B A | (d2 ^d) e2 e | (!>!=d3 d) ^c B | (^B3 ^c) A A | _B3 A2 G | G3 F2 F | c3- cd c | %19
w: |2. Wo die pur- pur- ne|Wo- * ge das|U- * fer be-|schäumt, _ und von|2. kom- men- den|Sän- gern der|Lor- * * beer|
 (c F2) z2 z | A3 B B B | c3 c2 _B | A3 c2 c | !fermata!f3 z A B | c3 B3 | A3 z2 z | z6 | z6 | z6 | %29
w: träumt. _|2. Wohl lockt es und|winkt dem ver-|lan- gen- den|Sinn, und ich|2. kann nicht|hin.||||
 z2 z z2 :| %30
w: |
V:3
 z | A3 A2 B | d3 c !fermata!z c | (c3 d2) e | f3 z2 z | A3 A2 B | d3 c2 c | (c3 B2) A | ^G3 z2 z | %9
w: |O hätt’ ich|Flü- gel! durchs|Blau _ der|Luft|3. wie wollt’ ich|ba- den im|Son- * nen|duft!|
 z6 | z6 | z2 z z"^a Tempo"!mf! E E | ^c2 z z B A | (d2 ^d) e2 e | (!>!=d3 d) ^c B | (^B3 ^c2) A | %16
w: ||Doch um-|3. sonst, ach, und|Stun- * de auf|Stun- * de ent-|flieht, _ ver-|
 _B3 A2 G | G3 F2 F | c3- c d c | (c F2) z2 z | A2 A B B B | c3 c2 _B | A3 c3 | !fermata!f3 z A B | %24
w: 3. träu- me die|Ju- gend, be-|gra- * be das|Lied. _|3. O, die Schran- ken so|eng, und die|Welt so|weit, und so|
 c3 B2 B | A3 z2 z | z6 | z6 | z6 | z2 z"_Emanuel Geibel." z2 :| %30
w: 3. flüch- tig die|Zeit.|||||
V:4
"^Lento" z |!p! !arpeggio![CEA]6 |!<(! !arpeggio![CEAc]6!<)! |!mf! !arpeggio![CE_Bc]6 | %4
!f! !arpeggio![CFAcf]6 |!p!!<(! [C^DA]3 [B,DA]2 [B,DA] | [B,=D^G]3 [CEA]!<)! z z | %7
!>(! [B,^D^FA]6!>)! |!pp! [B,E^G]3 z2 z |!mp![I:staff +1]{B,[I:staff -1]^FB^d^fa} !>!c'3 b2 a | %10
 !arpeggio![^GBe^g]6 |!mp![I:staff +1]{E,B,E[I:staff -1]^GBd} !>!^f3"^a Tempo"!<(! e2 d!<)! | %12
!mf! !arpeggio![^CEA^c]!arpeggio![CEAc]!arpeggio![CEAc] !arpeggio![CEAc]!arpeggio![DF^GB]!arpeggio![CEA] | %13
"_sempre arpeggiando" !arpeggio![DAd]!arpeggio![DAd]!arpeggio![^DA^d] !arpeggio![^CAe]!arpeggio![CAe]!arpeggio![CAe] | %14
 !arpeggio![D^Ge]!arpeggio![=DG^d]!arpeggio![DG=d] !arpeggio![DGd]!arpeggio![EA^c]!arpeggio![EGB] | %15
 !arpeggio![^D^F^B]!arpeggio![DFB]!arpeggio![DFB] !arpeggio![^CE^c]!arpeggio![CEc]!arpeggio![CEc] | %16
"_cresc." !arpeggio![^CG^c]!arpeggio![CGd]!arpeggio![CG^d] !arpeggio![CGe]!arpeggio![CGe]!arpeggio![CGe] | %17
 !arpeggio![DFd]!arpeggio![FAe]!arpeggio![FAf] !arpeggio![FBf]!arpeggio![FBg]!arpeggio![FB_a] | %18
 !arpeggio![Fc=a]!arpeggio![Fcg]!arpeggio![Fcf] !arpeggio![E_Be]!arpeggio![EBd]!arpeggio![EBc] | %19
 !arpeggio![CFc]!>(!!arpeggio![A,CF]!arpeggio![A,CF] !arpeggio![A,CF]!arpeggio![A,CF]!>)!!arpeggio![A,CF] | %20
!p!!<(! !wedge![C_EA]!wedge![B,EA] z !wedge![B,=EA]!wedge![B,E^G] z | %21
 !wedge![CEA]!wedge![CEA] z !wedge![CE_B]!wedge![CEB] z | %22
!<(! !wedge![CFA]!wedge![CFA]!<)! z !wedge![CEA]!wedge![CEA] z!<)! | %23
!f! !arpeggio!!fermata![F_Bdf]2 z!p! [C^FA][CFA] z | [CEA] z z [B,E^G] z z | %25
!mp! [A,EA]3"^più moto"!sfz! f2 d/B/ |!>(! [EA] z z [E^G] z z!>)! | %27
!mp! !tenuto!.[EAe]3!sfz!!>(! g>fd/_B/!>)! |!mf! [EA] z z!ff! [B,^G]3 | !fermata![A,CEA] z z z2 :| %30
V:5
 z | !arpeggio![A,,E,A,]6 | !arpeggio![A,,E,A,]6 | !arpeggio![G,,C,G,]6 | %4
!ped! !arpeggio![F,,C,F,A,]6!ped-up! | [F,,F,]3 [F,,F,]2 [F,,F,] | [E,,E,]3 [A,,E,] z z | %7
 [B,,,B,,]6 | [E,,E,]3 z2!ped! z | z6!ped-up! | !arpeggio![E,B,E]6 |!ped! z6!ped-up! | %12
!ped! !arpeggio![A,,E,A,]!arpeggio![A,,E,A,]!arpeggio![A,,E,A,] !arpeggio![A,,E,A,]!ped-up!!arpeggio![A,,F,^G,]!arpeggio![A,,E,A,] | %13
!ped! !arpeggio![A,,^F,A,]!arpeggio![A,,F,A,]!arpeggio![A,,=F,A,] !arpeggio![A,,E,A,]!ped-up!!arpeggio![A,,E,A,]!arpeggio![A,,E,A,] | %14
!ped! !arpeggio![E,,E,]!arpeggio![E,B,]!arpeggio![E,B,] !arpeggio![E,B,]!ped-up!!arpeggio![E,^C]!arpeggio![E,D] | %15
!ped! !arpeggio![A,,A,]!arpeggio![A,,A,]!arpeggio![A,,A,] !arpeggio![A,,E,A,]!arpeggio![A,,E,A,]!arpeggio![A,,E,A,]!ped-up! | %16
 !arpeggio![A,,E,A,]!arpeggio![A,,E,A,]!arpeggio![A,,E,A,] !arpeggio![A,,E,A,]!arpeggio![A,,E,A,]!arpeggio![A,,E,A,] | %17
 !arpeggio![D,A,]!arpeggio![D,A,]!arpeggio![D,A,] !arpeggio![D,_A,]!arpeggio![_D,A,]!arpeggio![D,A,] | %18
 !arpeggio![C,F,C]!arpeggio![C,A,C]!arpeggio![C,A,C] !arpeggio![C,G,C]!arpeggio![C,G,C]!arpeggio![C,G,C] | %19
 !arpeggio![F,A,]!arpeggio![F,,C,F,]!arpeggio![F,,C,F,] !arpeggio![F,,C,F,]!arpeggio![F,,C,F,]!arpeggio![F,,C,F,] | %20
 !wedge![F,,F,]!wedge![F,,F,] z !wedge![=E,,=E,]!wedge![E,,E,] z | %21
 !wedge![A,,A,]!wedge![A,,A,] z !wedge![G,,G,]!wedge![G,,G,] z | %22
 !wedge![F,,F,]!wedge![F,,F,] z !wedge![_E,,_E,]!wedge![E,,E,] z | %23
!ped!{/!fermata!D,,} !arpeggio!!fermata![D,F,_B,D]2!ped-up! z [^D,,^D,][D,,D,] z | %24
 [E,,E,] z z [D,,D,] z z | [C,,C,]3 [D,B,]3 | [E,C] z z [D,B,] z z | %27
 !tenuto!.[C,A,C]3 [D,F,_B,D]3 | [E,A,C] z z [E,,E,]3 | [A,,,A,,] z z z2 :| %30
V:6
 x | x6 | x6 | x6 | x6 | x6 | x6 | x6 | x6 | x6 | x6 | x6 | x6 | x6 | x6 | x6 | x6 | x6 | x6 | x6 | %20
 x6 | x6 | x6 | x6 | x6 | x3 F3 | x6 | x3 F3 | x3 F2 E/D/ | x5 :| %30

